X:1
T:Jingle Bells
T:Jingle Bells
%%score 1 { 2 | 3 }
L:1/8
M:4/4
K:C
V:1 treble transpose=-9 nm="Saxophone Alto" snm="Sax. A."
V:2 treble nm="Piano" snm="Pia."
V:3 bass 
V:1
[K:A] c2 c2 c4 | c2 c2 c4 | c2 e2 A2 B2 | c8 | d2 d2 d4 | c2 c2 c4 | c2 B2 B2 c2 | B4 e4 | %8
 c2 c2 c4 | c2 c2 c4 | c2 e2 A2 B2 | c8 | d2 d2 d4 | c2 c2 c4 | e2 e2 d2 B2 | A8 |] E2 c2 B2 A2 | %17
 E4 E2 c2 | B2 A2 F4 | F2 d2 c2 B2 | G4 e2 e2 | d2 B2 c4 | E2 c2 B2 A2 | E4 E2 c2 | B2 A2 F4 | %25
 F2 d2 c2 B2 | e2 e2 e4 | f2 e2 d2 B2 | A8 :| z8 | z8 | z8 |] %32
V:2
 E2 E2 E4 | E2 E2 E4 | E2 G2 C2 D2 | E8 | F2 F2 F4 | E2 E2 E4 | E2 D2 D2 E2 | D4 G4 | E2 E2 E4 | %9
 E2 E2 E4 | E2 G2 C2 D2 | E8 | F2 F2 F4 | E2 E2 E4 | G2 G2 F2 D2 | C8 |] z2 E2 D2 C2 | %17
 z2 z2 z2 E2 | D2 C2 z2 z2 | z2 F2 E2 D2 | z2 z2 G2 G2 | F2 D2 E4 | z2 E2 D2 C2 | z2 z2 z2 E2 | %24
 D2 C2 z2 z2 | z2 F2 E2 D2 | G2 G2 G4 | A2 G2 F2 D2 | C8 :| z8 | z8 | z8 |] %32
V:3
 [C,G,]8 | [C,G,]8 | [C,G,]4 [C,G,]4 | [C,G,]8 | [C,A,]8 | [C,G,]8 | [C,G,]8 | [B,,G,]8 | [C,G,]8 | %9
 [C,G,]8 | [C,G,]4 [C,G,]4 | [C,G,]8 | [C,A,]8 | [C,G,]8 | [C,A,]8 | [C,G,]8 |] G,2 z2 z4 | %17
 G,4 G,2 z2 | z4 A,4 | A,2 z2 z4 | B,4 z4 | z8 | G,2 z2 z4 | G,4 G,2 z2 | z2 z2 A,4 | %25
 A,2 z2 z2 z2 | z8 | z8 | z8 :| z8 | z8 | z8 |] %32

